X: 2438
T: Ballinara Ora
R: jig
M: 6/8
K: Dmajor
F|"D"D3/2E/D "Bm"d3/2e/f|"Em"e3/2d/B "D"d2 f|"A"e3/2d/c "G"Bcd|"D"AFD "A"E2 F|
"D"D3/2E/D "Bm"d3/2e/f|"Em"e3/2d/B "D"d2 f|"A"e3/2d/c "G"Bcd|"D"AFD "A"E2 E|
"Em"B3/2G/E E3/2G/B|"Em"B3 G2 G|"D"A3/2F/D D3/2F/A|"D"A3 F2 E|
"Em"B3/2G/E E3/2G/B|"A"e3 c3-|"A"c2 F "D"dAF|"A"GEC "D"D2 z|

